( pcb2gcode 2.0.0 )
( Software-independent Gcode )

G94 ( Inches per minute feed rate. )
G20 ( Units == INCHES. )

G90 ( Absolute coordinates. )
G00 S1000 ( RPM spindle speed. )
G64 P0.00040 ( set maximum deviation from commanded toolpath )
G01 F1.18110 ( Feedrate. )


G00 Z0.39370 (Retract to tool change height)
T0
M5      (Spindle stop.)
G04 P1.00000 (Wait for spindle to stop)
(MSG, Change tool bit to mill diameter 0.00787in)
M6      (Tool change.)
M0      (Temporary machine stop.)
M3 ( Spindle on clockwise. )
G04 P1.00000 (Wait for spindle to get up to speed)
G04 P0 ( dwell for no time -- G64 should not smooth over this point )
G00 Z0.07874 ( retract )

G00 X0.20275 Y-0.94685 ( rapid move to begin. )
G01 F0.59055
G01 Z-0.01024
G04 P0 ( dwell for no time -- G64 should not smooth over this point )
G01 F1.18110
G01 X0.20275 Y-0.94685
G01 X0.20391 Y-0.94963
G01 X0.20669 Y-0.95079
G01 X0.27362 Y-0.95079
G01 X0.27581 Y-0.95012
G01 X0.27726 Y-0.94836
G01 X0.27756 Y-0.94685
G01 X0.27756 Y-0.92717
G01 X0.29561 Y-0.92696
G01 X0.29893 Y-0.92595
G01 X0.30276 Y-0.92339
G01 X0.40531 Y-0.82087
G01 X0.60453 Y-0.82087
G01 X0.63780 Y-0.85413
G01 X0.63780 Y-0.87205
G01 X0.63038 Y-0.87235
G01 X0.62911 Y-0.87320
G01 X0.62803 Y-0.87522
G01 X0.62795 Y-0.90354
G01 X0.62911 Y-0.90633
G01 X0.63112 Y-0.90740
G01 X0.71214 Y-0.90718
G01 X0.71390 Y-0.90573
G01 X0.71457 Y-0.90354
G01 X0.71449 Y-0.87522
G01 X0.71282 Y-0.87271
G01 X0.71063 Y-0.87205
G01 X0.66535 Y-0.87205
G01 X0.66534 Y-0.84804
G01 X0.66443 Y-0.84352
G01 X0.66323 Y-0.84110
G01 X0.61998 Y-0.79734
G01 X0.61756 Y-0.79543
G01 X0.61330 Y-0.79366
G01 X0.39730 Y-0.79351
G01 X0.39398 Y-0.79452
G01 X0.38986 Y-0.79734
G01 X0.28760 Y-0.89961
G01 X0.27756 Y-0.89961
G01 X0.27748 Y-0.87915
G01 X0.27641 Y-0.87714
G01 X0.27439 Y-0.87606
G01 X0.20669 Y-0.87598
G01 X0.20450 Y-0.87665
G01 X0.20342 Y-0.87773
G01 X0.20275 Y-0.87992
G01 X0.20275 Y-0.94685
G04 P0 ( dwell for no time -- G64 should not smooth over this point )
G00 Z0.07874 ( retract )

G00 X0.11614 Y-0.97638 ( rapid move to begin. )
G01 F0.59055
G01 Z-0.01024
G04 P0 ( dwell for no time -- G64 should not smooth over this point )
G01 F1.18110
G01 X0.11614 Y-0.97638
G01 X0.11736 Y-0.98200
G01 X0.12018 Y-0.98612
G01 X0.15718 Y-1.02313
G01 X0.16131 Y-1.02595
G01 X0.16693 Y-1.02717
G01 X0.20550 Y-1.02717
G01 X0.21016 Y-1.03569
G01 X0.21545 Y-1.04144
G01 X0.22182 Y-1.04596
G01 X0.22900 Y-1.04906
G01 X0.23666 Y-1.05060
G01 X0.24447 Y-1.05052
G01 X0.25210 Y-1.04881
G01 X0.25886 Y-1.04578
G01 X0.26548 Y-1.04089
G01 X0.27064 Y-1.03502
G01 X0.27414 Y-1.02896
G01 X0.27626 Y-1.02270
G01 X0.44272 Y-0.85630
G01 X0.56516 Y-0.85630
G01 X0.56890 Y-0.86004
G01 X0.56890 Y-0.95492
G01 X0.54154 Y-0.98228
G01 X0.47047 Y-0.98228
G01 X0.46829 Y-0.98295
G01 X0.46720 Y-0.98403
G01 X0.46653 Y-0.98622
G01 X0.46653 Y-1.01378
G01 X0.46720 Y-1.01597
G01 X0.46829 Y-1.01705
G01 X0.47047 Y-1.01772
G01 X0.55072 Y-1.01742
G01 X0.55285 Y-1.01528
G01 X0.55315 Y-1.00964
G01 X0.59242 Y-0.97037
G01 X0.59554 Y-0.96554
G01 X0.59646 Y-0.96063
G01 X0.59625 Y-0.85202
G01 X0.59390 Y-0.84636
G01 X0.58032 Y-0.83252
G01 X0.57578 Y-0.82966
G01 X0.57087 Y-0.82874
G01 X0.43662 Y-0.82876
G01 X0.43139 Y-0.82995
G01 X0.42726 Y-0.83278
G01 X0.26959 Y-0.99045
G01 X0.26486 Y-0.98533
G01 X0.25920 Y-0.98122
G01 X0.25210 Y-0.97796
G01 X0.24407 Y-0.97619
G01 X0.23625 Y-0.97619
G01 X0.22822 Y-0.97796
G01 X0.22146 Y-0.98099
G01 X0.21545 Y-0.98533
G01 X0.20990 Y-0.99140
G01 X0.20550 Y-0.99961
G01 X0.17264 Y-0.99961
G01 X0.14370 Y-0.97067
G01 X0.14370 Y-0.79311
G01 X0.18681 Y-0.75000
G01 X2.19035 Y-0.75000
G01 X2.19526 Y-0.74908
G01 X2.19981 Y-0.74622
G01 X2.24184 Y-0.70422
G01 X2.24350 Y-0.70497
G01 X2.24350 Y-1.10606
G01 X2.23809 Y-1.10849
G01 X2.23192 Y-1.11295
G01 X2.22600 Y-1.11952
G01 X2.22222 Y-1.12612
G01 X2.21984 Y-1.13335
G01 X2.21892 Y-1.14214
G01 X2.21984 Y-1.15011
G01 X2.22240 Y-1.15771
G01 X2.22600 Y-1.16395
G01 X2.23131 Y-1.16997
G01 X2.23774 Y-1.17475
G01 X2.24542 Y-1.17824
G01 X2.25286 Y-1.17984
G01 X2.26088 Y-1.17993
G01 X2.26914 Y-1.17824
G01 X2.27648 Y-1.17498
G01 X2.28265 Y-1.17052
G01 X2.28856 Y-1.16395
G01 X2.29235 Y-1.15735
G01 X2.29472 Y-1.15011
G01 X2.29567 Y-1.14173
G01 X2.29472 Y-1.13335
G01 X2.29235 Y-1.12612
G01 X2.28856 Y-1.11952
G01 X2.28265 Y-1.11295
G01 X2.27648 Y-1.10849
G01 X2.27106 Y-1.10606
G01 X2.27106 Y-0.70497
G01 X2.27648 Y-0.70253
G01 X2.28265 Y-0.69808
G01 X2.28856 Y-0.69151
G01 X2.29235 Y-0.68490
G01 X2.29472 Y-0.67767
G01 X2.29567 Y-0.66929
G01 X2.29472 Y-0.66091
G01 X2.29235 Y-0.65368
G01 X2.28856 Y-0.64707
G01 X2.28265 Y-0.64050
G01 X2.27648 Y-0.63605
G01 X2.27106 Y-0.63361
G01 X2.27106 Y-0.23253
G01 X2.27648 Y-0.23009
G01 X2.28326 Y-0.22509
G01 X2.28856 Y-0.21907
G01 X2.29250 Y-0.21208
G01 X2.29483 Y-0.20483
G01 X2.29567 Y-0.19685
G01 X2.29483 Y-0.18887
G01 X2.29250 Y-0.18162
G01 X2.28808 Y-0.17397
G01 X2.28265 Y-0.16806
G01 X2.27648 Y-0.16361
G01 X2.26875 Y-0.16024
G01 X2.26088 Y-0.15865
G01 X2.25368 Y-0.15865
G01 X2.24504 Y-0.16049
G01 X2.23809 Y-0.16361
G01 X2.23192 Y-0.16806
G01 X2.22600 Y-0.17463
G01 X2.22207 Y-0.18162
G01 X2.21974 Y-0.18887
G01 X2.21890 Y-0.19685
G01 X2.21967 Y-0.20442
G01 X2.22240 Y-0.21283
G01 X2.22600 Y-0.21907
G01 X2.23131 Y-0.22509
G01 X2.23809 Y-0.23009
G01 X2.24350 Y-0.23253
G01 X2.24350 Y-0.63361
G01 X2.23809 Y-0.63605
G01 X2.23131 Y-0.64106
G01 X2.22600 Y-0.64707
G01 X2.22222 Y-0.65368
G01 X2.21974 Y-0.66131
G01 X2.21890 Y-0.66929
G01 X2.21974 Y-0.67727
G01 X2.22222 Y-0.68486
G01 X2.18465 Y-0.72244
G01 X0.17880 Y-0.72265
G01 X0.17548 Y-0.72366
G01 X0.17136 Y-0.72648
G01 X0.12018 Y-0.77766
G01 X0.11826 Y-0.78008
G01 X0.11650 Y-0.78434
G01 X0.11614 Y-0.97638
G04 P0 ( dwell for no time -- G64 should not smooth over this point )
G00 Z0.07874 ( retract )

G00 X0.05315 Y-1.03937 ( rapid move to begin. )
G01 F0.59055
G01 Z-0.01024
G04 P0 ( dwell for no time -- G64 should not smooth over this point )
G01 F1.18110
G01 X0.05315 Y-1.03937
G01 X0.05436 Y-1.04499
G01 X0.05718 Y-1.04911
G01 X0.13362 Y-1.12504
G01 X0.13788 Y-1.12681
G01 X0.14094 Y-1.12716
G01 X0.20550 Y-1.12716
G01 X0.21016 Y-1.13569
G01 X0.21545 Y-1.14144
G01 X0.22182 Y-1.14596
G01 X0.22822 Y-1.14881
G01 X0.23584 Y-1.15052
G01 X0.24366 Y-1.15060
G01 X0.25132 Y-1.14906
G01 X0.25886 Y-1.14578
G01 X0.26518 Y-1.14118
G01 X0.27064 Y-1.13502
G01 X0.27432 Y-1.12860
G01 X0.27674 Y-1.12116
G01 X0.27754 Y-1.11380
G01 X0.27674 Y-1.10561
G01 X0.27447 Y-1.09856
G01 X0.46724 Y-0.90579
G01 X0.46897 Y-0.90718
G01 X0.47047 Y-0.90748
G01 X0.54921 Y-0.90748
G01 X0.55072 Y-0.90718
G01 X0.55249 Y-0.90573
G01 X0.55315 Y-0.90354
G01 X0.55315 Y-0.87598
G01 X0.55249 Y-0.87380
G01 X0.54998 Y-0.87212
G01 X0.47047 Y-0.87205
G01 X0.46769 Y-0.87320
G01 X0.46653 Y-0.87598
G01 X0.46072 Y-0.87634
G01 X0.45645 Y-0.87811
G01 X0.25486 Y-1.07919
G01 X0.25132 Y-1.07771
G01 X0.24366 Y-1.07617
G01 X0.23625 Y-1.07619
G01 X0.22822 Y-1.07796
G01 X0.22146 Y-1.08099
G01 X0.21513 Y-1.08559
G01 X0.20967 Y-1.09175
G01 X0.20550 Y-1.09961
G01 X0.14665 Y-1.09961
G01 X0.08071 Y-1.03366
G01 X0.08071 Y-0.72618
G01 X0.45846 Y-0.34842
G01 X0.92239 Y-0.34842
G01 X0.92727 Y-0.35753
G01 X0.93239 Y-0.36317
G01 X0.93853 Y-0.36766
G01 X0.94661 Y-0.37126
G01 X0.95365 Y-0.37276
G01 X0.96167 Y-0.37284
G01 X0.96993 Y-0.37115
G01 X0.97761 Y-0.36766
G01 X0.98376 Y-0.36317
G01 X0.98887 Y-0.35753
G01 X0.99295 Y-0.35063
G01 X0.99551 Y-0.34302
G01 X0.99643 Y-0.33423
G01 X0.99562 Y-0.32666
G01 X0.99328 Y-0.31942
G01 X0.98913 Y-0.31208
G01 X0.98376 Y-0.30612
G01 X0.97690 Y-0.30122
G01 X0.96953 Y-0.29803
G01 X0.96249 Y-0.29653
G01 X0.95447 Y-0.29645
G01 X0.94582 Y-0.29829
G01 X0.93924 Y-0.30122
G01 X0.93271 Y-0.30586
G01 X0.92702 Y-0.31208
G01 X0.92239 Y-0.32087
G01 X0.45276 Y-0.32087
G01 X0.44785 Y-0.32178
G01 X0.44479 Y-0.32342
G01 X0.05527 Y-0.71315
G01 X0.05351 Y-0.71741
G01 X0.05315 Y-0.72047
G01 X0.05315 Y-1.03937
G04 P0 ( dwell for no time -- G64 should not smooth over this point )
G00 Z0.07874 ( retract )

G00 X0.20278 Y-1.21380 ( rapid move to begin. )
G01 F0.59055
G01 Z-0.01024
G04 P0 ( dwell for no time -- G64 should not smooth over this point )
G01 F1.18110
G01 X0.20278 Y-1.21380
G01 X0.20357 Y-1.22116
G01 X0.20599 Y-1.22860
G01 X0.20990 Y-1.23537
G01 X0.21484 Y-1.24089
G01 X0.22111 Y-1.24555
G01 X0.22822 Y-1.24881
G01 X0.23666 Y-1.25060
G01 X0.24447 Y-1.25052
G01 X0.25132 Y-1.24906
G01 X0.25920 Y-1.24555
G01 X0.26518 Y-1.24118
G01 X0.27016 Y-1.23569
G01 X0.27481 Y-1.22717
G01 X0.46378 Y-1.22717
G01 X0.46684 Y-1.22681
G01 X0.47110 Y-1.22504
G01 X0.61796 Y-1.07819
G01 X0.61972 Y-1.07393
G01 X0.62008 Y-1.07087
G01 X0.62008 Y-0.98563
G01 X0.64311 Y-0.96260
G01 X0.71063 Y-0.96260
G01 X0.71341 Y-0.96144
G01 X0.71457 Y-0.95866
G01 X0.82027 Y-0.95866
G01 X0.82590 Y-0.95745
G01 X0.83002 Y-0.95462
G01 X0.94262 Y-0.84202
G01 X0.94661 Y-0.84370
G01 X0.95365 Y-0.84520
G01 X0.96249 Y-0.84520
G01 X0.97032 Y-0.84345
G01 X0.97690 Y-0.84052
G01 X0.98405 Y-0.83532
G01 X0.98913 Y-0.82965
G01 X0.99295 Y-0.82307
G01 X0.99568 Y-0.81466
G01 X0.99646 Y-0.80709
G01 X0.99568 Y-0.79951
G01 X0.99295 Y-0.79111
G01 X0.98887 Y-0.78420
G01 X0.98343 Y-0.77830
G01 X0.97726 Y-0.77384
G01 X0.96953 Y-0.77047
G01 X0.96208 Y-0.76891
G01 X0.95447 Y-0.76889
G01 X0.94661 Y-0.77047
G01 X0.93924 Y-0.77366
G01 X0.93271 Y-0.77830
G01 X0.92679 Y-0.78487
G01 X0.92319 Y-0.79111
G01 X0.92063 Y-0.79871
G01 X0.91971 Y-0.80750
G01 X0.92063 Y-0.81546
G01 X0.92299 Y-0.82268
G01 X0.81457 Y-0.93110
G01 X0.71457 Y-0.93110
G01 X0.71341 Y-0.92832
G01 X0.71063 Y-0.92717
G01 X0.63189 Y-0.92717
G01 X0.62970 Y-0.92783
G01 X0.62803 Y-0.93033
G01 X0.62795 Y-0.93878
G01 X0.59655 Y-0.97018
G01 X0.59464 Y-0.97260
G01 X0.59288 Y-0.97686
G01 X0.59252 Y-1.06516
G01 X0.45807 Y-1.19961
G01 X0.27481 Y-1.19961
G01 X0.27016 Y-1.19108
G01 X0.26548 Y-1.18588
G01 X0.25920 Y-1.18122
G01 X0.25132 Y-1.17771
G01 X0.24447 Y-1.17625
G01 X0.23666 Y-1.17617
G01 X0.22822 Y-1.17796
G01 X0.22111 Y-1.18122
G01 X0.21484 Y-1.18588
G01 X0.20967 Y-1.19175
G01 X0.20599 Y-1.19817
G01 X0.20357 Y-1.20561
G01 X0.20278 Y-1.21380
G04 P0 ( dwell for no time -- G64 should not smooth over this point )
G00 Z0.07874 ( retract )

G00 X0.20278 Y-1.31380 ( rapid move to begin. )
G01 F0.59055
G01 Z-0.01024
G04 P0 ( dwell for no time -- G64 should not smooth over this point )
G01 F1.18110
G01 X0.20278 Y-1.31380
G01 X0.20357 Y-1.32116
G01 X0.20599 Y-1.32860
G01 X0.20990 Y-1.33537
G01 X0.21484 Y-1.34089
G01 X0.22111 Y-1.34555
G01 X0.22822 Y-1.34881
G01 X0.23666 Y-1.35060
G01 X0.24447 Y-1.35052
G01 X0.25132 Y-1.34906
G01 X0.25920 Y-1.34555
G01 X0.26518 Y-1.34118
G01 X0.27016 Y-1.33569
G01 X0.27481 Y-1.32716
G01 X0.44252 Y-1.32716
G01 X0.44814 Y-1.32595
G01 X0.45226 Y-1.32313
G01 X0.65157 Y-1.12382
G01 X0.78258 Y-1.25482
G01 X0.78670 Y-1.25764
G01 X0.79232 Y-1.25886
G01 X0.91791 Y-1.25886
G01 X0.92299 Y-1.26394
G01 X0.92046 Y-1.27195
G01 X0.91971 Y-1.27994
G01 X0.92063 Y-1.28791
G01 X0.92300 Y-1.29514
G01 X0.92679 Y-1.30174
G01 X0.93209 Y-1.30776
G01 X0.93888 Y-1.31277
G01 X0.94621 Y-1.31603
G01 X0.95447 Y-1.31772
G01 X0.96249 Y-1.31764
G01 X0.96993 Y-1.31603
G01 X0.97726 Y-1.31277
G01 X0.98405 Y-1.30776
G01 X0.98913 Y-1.30209
G01 X0.99314 Y-1.29514
G01 X0.99551 Y-1.28791
G01 X0.99646 Y-1.27953
G01 X0.99551 Y-1.27115
G01 X0.99295 Y-1.26355
G01 X0.98887 Y-1.25664
G01 X0.98405 Y-1.25129
G01 X0.97761 Y-1.24651
G01 X0.96993 Y-1.24302
G01 X0.96167 Y-1.24133
G01 X0.95365 Y-1.24142
G01 X0.94661 Y-1.24291
G01 X0.94262 Y-1.24459
G01 X0.93159 Y-1.23385
G01 X0.92668 Y-1.23166
G01 X0.79803 Y-1.23130
G01 X0.66535 Y-1.09862
G01 X0.66535 Y-1.01772
G01 X0.71063 Y-1.01772
G01 X0.71282 Y-1.01705
G01 X0.71427 Y-1.01528
G01 X0.71457 Y-1.01378
G01 X0.71457 Y-0.98622
G01 X0.71390 Y-0.98403
G01 X0.71282 Y-0.98295
G01 X0.71063 Y-0.98228
G01 X0.63189 Y-0.98228
G01 X0.62911 Y-0.98344
G01 X0.62803 Y-0.98545
G01 X0.62795 Y-1.01378
G01 X0.62862 Y-1.01597
G01 X0.63038 Y-1.01742
G01 X0.63780 Y-1.01772
G01 X0.63780 Y-1.09862
G01 X0.43681 Y-1.29961
G01 X0.27481 Y-1.29961
G01 X0.27016 Y-1.29108
G01 X0.26548 Y-1.28588
G01 X0.25920 Y-1.28122
G01 X0.25132 Y-1.27771
G01 X0.24447 Y-1.27625
G01 X0.23666 Y-1.27617
G01 X0.22822 Y-1.27796
G01 X0.22111 Y-1.28122
G01 X0.21484 Y-1.28588
G01 X0.20967 Y-1.29175
G01 X0.20599 Y-1.29817
G01 X0.20357 Y-1.30561
G01 X0.20278 Y-1.31380
G04 P0 ( dwell for no time -- G64 should not smooth over this point )
G00 Z0.07874 ( retract )

G00 X0.46653 Y-0.95866 ( rapid move to begin. )
G01 F0.59055
G01 Z-0.01024
G04 P0 ( dwell for no time -- G64 should not smooth over this point )
G01 F1.18110
G01 X0.46653 Y-0.95866
G01 X0.46769 Y-0.96144
G01 X0.47047 Y-0.96260
G01 X0.55072 Y-0.96230
G01 X0.55249 Y-0.96085
G01 X0.55315 Y-0.95866
G01 X0.55285 Y-0.92959
G01 X0.55140 Y-0.92783
G01 X0.54921 Y-0.92717
G01 X0.46897 Y-0.92746
G01 X0.46720 Y-0.92892
G01 X0.46653 Y-0.93110
G01 X0.46653 Y-0.95866
G04 P0 ( dwell for no time -- G64 should not smooth over this point )
G00 Z0.07874 ( retract )

G00 X1.05455 Y-1.37640 ( rapid move to begin. )
G01 F0.59055
G01 Z-0.01024
G04 P0 ( dwell for no time -- G64 should not smooth over this point )
G01 F1.18110
G01 X1.05455 Y-1.37640
G01 X1.05588 Y-1.36372
G01 X1.05965 Y-1.35240
G01 X1.06569 Y-1.34211
G01 X1.07342 Y-1.33356
G01 X1.08307 Y-1.32655
G01 X1.09397 Y-1.32169
G01 X1.10606 Y-1.31919
G01 X1.11799 Y-1.31927
G01 X1.12925 Y-1.32169
G01 X1.14016 Y-1.32655
G01 X1.14981 Y-1.33356
G01 X1.15780 Y-1.34243
G01 X1.16358 Y-1.35240
G01 X1.16745 Y-1.36411
G01 X1.16868 Y-1.37557
G01 X1.16745 Y-1.38785
G01 X1.16391 Y-1.39882
G01 X1.15780 Y-1.40954
G01 X1.15010 Y-1.41812
G01 X1.14016 Y-1.42542
G01 X1.12964 Y-1.43013
G01 X1.11717 Y-1.43278
G01 X1.10524 Y-1.43269
G01 X1.09397 Y-1.43028
G01 X1.08307 Y-1.42542
G01 X1.07342 Y-1.41841
G01 X1.06543 Y-1.40954
G01 X1.05965 Y-1.39957
G01 X1.05577 Y-1.38785
G01 X1.05455 Y-1.37640
G04 P0 ( dwell for no time -- G64 should not smooth over this point )
G00 Z0.07874 ( retract )

G00 X0.91968 Y-1.17618 ( rapid move to begin. )
G01 F0.59055
G01 Z-0.01024
G04 P0 ( dwell for no time -- G64 should not smooth over this point )
G01 F1.18110
G01 X0.91968 Y-1.17618
G01 X0.92084 Y-1.17896
G01 X0.92362 Y-1.18012
G01 X0.99252 Y-1.18012
G01 X0.99530 Y-1.17896
G01 X0.99646 Y-1.17618
G01 X0.99646 Y-1.10728
G01 X0.99530 Y-1.10450
G01 X0.99252 Y-1.10335
G01 X0.92362 Y-1.10335
G01 X0.92084 Y-1.10450
G01 X0.91968 Y-1.10728
G01 X0.91968 Y-1.17618
G04 P0 ( dwell for no time -- G64 should not smooth over this point )
G00 Z0.07874 ( retract )

G00 X1.10179 Y-1.04569 ( rapid move to begin. )
G01 F0.59055
G01 Z-0.01024
G04 P0 ( dwell for no time -- G64 should not smooth over this point )
G01 F1.18110
G01 X1.10179 Y-1.04569
G01 X1.10312 Y-1.03301
G01 X1.10689 Y-1.02169
G01 X1.11293 Y-1.01140
G01 X1.12066 Y-1.00285
G01 X1.13068 Y-0.99565
G01 X1.14122 Y-0.99098
G01 X1.15330 Y-0.98848
G01 X1.16523 Y-0.98857
G01 X1.17650 Y-0.99098
G01 X1.18775 Y-0.99606
G01 X1.19706 Y-1.00285
G01 X1.20504 Y-1.01172
G01 X1.21082 Y-1.02169
G01 X1.21470 Y-1.03341
G01 X1.21592 Y-1.04486
G01 X1.21470 Y-1.05714
G01 X1.21116 Y-1.06811
G01 X1.20478 Y-1.07915
G01 X1.19706 Y-1.08770
G01 X1.18740 Y-1.09471
G01 X1.17650 Y-1.09957
G01 X1.16441 Y-1.10207
G01 X1.15248 Y-1.10198
G01 X1.14122 Y-1.09957
G01 X1.13031 Y-1.09471
G01 X1.12066 Y-1.08770
G01 X1.11267 Y-1.07883
G01 X1.10689 Y-1.06886
G01 X1.10302 Y-1.05714
G01 X1.10179 Y-1.04569
G04 P0 ( dwell for no time -- G64 should not smooth over this point )
G00 Z0.07874 ( retract )

G00 X1.05455 Y-0.90395 ( rapid move to begin. )
G01 F0.59055
G01 Z-0.01024
G04 P0 ( dwell for no time -- G64 should not smooth over this point )
G01 F1.18110
G01 X1.05455 Y-0.90395
G01 X1.05588 Y-0.89128
G01 X1.05965 Y-0.87996
G01 X1.06569 Y-0.86967
G01 X1.07374 Y-0.86086
G01 X1.08344 Y-0.85392
G01 X1.09397 Y-0.84925
G01 X1.10606 Y-0.84675
G01 X1.11799 Y-0.84683
G01 X1.12925 Y-0.84925
G01 X1.13979 Y-0.85392
G01 X1.14981 Y-0.86112
G01 X1.15754 Y-0.86967
G01 X1.16358 Y-0.87996
G01 X1.16745 Y-0.89167
G01 X1.16868 Y-0.90313
G01 X1.16745 Y-0.91541
G01 X1.16391 Y-0.92638
G01 X1.15780 Y-0.93710
G01 X1.15010 Y-0.94568
G01 X1.14050 Y-0.95276
G01 X1.12964 Y-0.95769
G01 X1.11717 Y-0.96034
G01 X1.10524 Y-0.96025
G01 X1.09397 Y-0.95783
G01 X1.08272 Y-0.95276
G01 X1.07312 Y-0.94568
G01 X1.06543 Y-0.93710
G01 X1.05932 Y-0.92638
G01 X1.05577 Y-0.91541
G01 X1.05455 Y-0.90395
G04 P0 ( dwell for no time -- G64 should not smooth over this point )
G00 Z0.07874 ( retract )

G00 X0.91968 Y-0.70374 ( rapid move to begin. )
G01 F0.59055
G01 Z-0.01024
G04 P0 ( dwell for no time -- G64 should not smooth over this point )
G01 F1.18110
G01 X0.91968 Y-0.70374
G01 X0.91968 Y-0.63484
G01 X0.92084 Y-0.63206
G01 X0.92362 Y-0.63091
G01 X0.99252 Y-0.63091
G01 X0.99530 Y-0.63206
G01 X0.99646 Y-0.63484
G01 X0.99646 Y-0.70374
G01 X0.99530 Y-0.70652
G01 X0.99252 Y-0.70768
G01 X0.92362 Y-0.70768
G01 X0.92084 Y-0.70652
G01 X0.91968 Y-0.70374
G04 P0 ( dwell for no time -- G64 should not smooth over this point )
G00 Z0.07874 ( retract )

G00 X1.10179 Y-0.57325 ( rapid move to begin. )
G01 F0.59055
G01 Z-0.01024
G04 P0 ( dwell for no time -- G64 should not smooth over this point )
G01 F1.18110
G01 X1.10179 Y-0.57325
G01 X1.10302 Y-0.58470
G01 X1.10689 Y-0.59642
G01 X1.11293 Y-0.60671
G01 X1.12066 Y-0.61526
G01 X1.13068 Y-0.62246
G01 X1.14122 Y-0.62713
G01 X1.15248 Y-0.62954
G01 X1.16441 Y-0.62963
G01 X1.17650 Y-0.62713
G01 X1.18703 Y-0.62246
G01 X1.19674 Y-0.61552
G01 X1.20478 Y-0.60671
G01 X1.21116 Y-0.59567
G01 X1.21470 Y-0.58470
G01 X1.21592 Y-0.57242
G01 X1.21470 Y-0.56097
G01 X1.21082 Y-0.54925
G01 X1.20478 Y-0.53896
G01 X1.19706 Y-0.53041
G01 X1.18775 Y-0.52362
G01 X1.17650 Y-0.51854
G01 X1.16523 Y-0.51612
G01 X1.15330 Y-0.51604
G01 X1.14122 Y-0.51854
G01 X1.13068 Y-0.52321
G01 X1.12098 Y-0.53015
G01 X1.11293 Y-0.53896
G01 X1.10689 Y-0.54925
G01 X1.10312 Y-0.56057
G01 X1.10179 Y-0.57325
G04 P0 ( dwell for no time -- G64 should not smooth over this point )
G00 Z0.07874 ( retract )

G00 X1.05455 Y-0.43151 ( rapid move to begin. )
G01 F0.59055
G01 Z-0.01024
G04 P0 ( dwell for no time -- G64 should not smooth over this point )
G01 F1.18110
G01 X1.05455 Y-0.43151
G01 X1.05577 Y-0.44297
G01 X1.05932 Y-0.45394
G01 X1.06543 Y-0.46466
G01 X1.07312 Y-0.47323
G01 X1.08272 Y-0.48032
G01 X1.09397 Y-0.48539
G01 X1.10524 Y-0.48781
G01 X1.11717 Y-0.48790
G01 X1.12964 Y-0.48525
G01 X1.14050 Y-0.48032
G01 X1.15010 Y-0.47323
G01 X1.15780 Y-0.46466
G01 X1.16391 Y-0.45394
G01 X1.16745 Y-0.44297
G01 X1.16868 Y-0.43069
G01 X1.16745 Y-0.41923
G01 X1.16391 Y-0.40827
G01 X1.15780 Y-0.39755
G01 X1.15010 Y-0.38897
G01 X1.14050 Y-0.38189
G01 X1.12925 Y-0.37681
G01 X1.11799 Y-0.37439
G01 X1.10606 Y-0.37431
G01 X1.09397 Y-0.37681
G01 X1.08344 Y-0.38148
G01 X1.07374 Y-0.38842
G01 X1.06569 Y-0.39723
G01 X1.05965 Y-0.40752
G01 X1.05588 Y-0.41884
G01 X1.05455 Y-0.43151
G04 P0 ( dwell for no time -- G64 should not smooth over this point )
G00 Z0.07874 ( retract )

G00 X0.91968 Y-0.23130 ( rapid move to begin. )
G01 F0.59055
G01 Z-0.01024
G04 P0 ( dwell for no time -- G64 should not smooth over this point )
G01 F1.18110
G01 X0.91968 Y-0.23130
G01 X0.91968 Y-0.16240
G01 X0.92084 Y-0.15962
G01 X0.92362 Y-0.15846
G01 X0.99252 Y-0.15846
G01 X0.99530 Y-0.15962
G01 X0.99646 Y-0.16240
G01 X0.99646 Y-0.23130
G01 X0.99530 Y-0.23408
G01 X0.99252 Y-0.23524
G01 X0.92362 Y-0.23524
G01 X0.92084 Y-0.23408
G01 X0.91968 Y-0.23130
G04 P0 ( dwell for no time -- G64 should not smooth over this point )
G00 Z0.07874 ( retract )

G00 X1.10179 Y-0.10081 ( rapid move to begin. )
G01 F0.59055
G01 Z-0.01024
G04 P0 ( dwell for no time -- G64 should not smooth over this point )
G01 F1.18110
G01 X1.10179 Y-0.10081
G01 X1.10302 Y-0.11226
G01 X1.10656 Y-0.12323
G01 X1.11267 Y-0.13395
G01 X1.12037 Y-0.14253
G01 X1.12997 Y-0.14961
G01 X1.14122 Y-0.15469
G01 X1.15248 Y-0.15710
G01 X1.16441 Y-0.15719
G01 X1.17650 Y-0.15469
G01 X1.18703 Y-0.15002
G01 X1.19674 Y-0.14308
G01 X1.20478 Y-0.13427
G01 X1.21116 Y-0.12323
G01 X1.21470 Y-0.11226
G01 X1.21592 Y-0.09998
G01 X1.21470 Y-0.08852
G01 X1.21116 Y-0.07756
G01 X1.20504 Y-0.06684
G01 X1.19735 Y-0.05826
G01 X1.18775 Y-0.05118
G01 X1.17688 Y-0.04625
G01 X1.16482 Y-0.04362
G01 X1.15330 Y-0.04360
G01 X1.14162 Y-0.04599
G01 X1.13068 Y-0.05077
G01 X1.12098 Y-0.05771
G01 X1.11293 Y-0.06652
G01 X1.10689 Y-0.07681
G01 X1.10312 Y-0.08813
G01 X1.10179 Y-0.10081
G04 P0 ( dwell for no time -- G64 should not smooth over this point )
G00 Z0.07874 ( retract )

G00 X1.99943 Y-0.10081 ( rapid move to begin. )
G01 F0.59055
G01 Z-0.01024
G04 P0 ( dwell for no time -- G64 should not smooth over this point )
G01 F1.18110
G01 X1.99943 Y-0.10081
G01 X2.00076 Y-0.08813
G01 X2.00434 Y-0.07717
G01 X2.01057 Y-0.06652
G01 X2.01862 Y-0.05771
G01 X2.02795 Y-0.05096
G01 X2.03925 Y-0.04599
G01 X2.05094 Y-0.04360
G01 X2.06287 Y-0.04368
G01 X2.07452 Y-0.04625
G01 X2.08504 Y-0.05096
G01 X2.09498 Y-0.05826
G01 X2.10268 Y-0.06684
G01 X2.10880 Y-0.07756
G01 X2.11233 Y-0.08852
G01 X2.11358 Y-0.10039
G01 X2.11223 Y-0.11266
G01 X2.10865 Y-0.12361
G01 X2.10268 Y-0.13395
G01 X2.09498 Y-0.14253
G01 X2.08467 Y-0.15002
G01 X2.07374 Y-0.15479
G01 X2.06205 Y-0.15719
G01 X2.05012 Y-0.15710
G01 X2.03847 Y-0.15454
G01 X2.02795 Y-0.14983
G01 X2.01862 Y-0.14308
G01 X2.01031 Y-0.13395
G01 X2.00453 Y-0.12398
G01 X2.00066 Y-0.11226
G01 X1.99943 Y-0.10081
G04 P0 ( dwell for no time -- G64 should not smooth over this point )
G00 Z0.07874 ( retract )

G00 X2.04665 Y-0.43110 ( rapid move to begin. )
G01 F0.59055
G01 Z-0.01024
G04 P0 ( dwell for no time -- G64 should not smooth over this point )
G01 F1.18110
G01 X2.04665 Y-0.43110
G01 X2.04801 Y-0.41884
G01 X2.05159 Y-0.40788
G01 X2.05756 Y-0.39755
G01 X2.06525 Y-0.38897
G01 X2.07520 Y-0.38166
G01 X2.08571 Y-0.37696
G01 X2.09737 Y-0.37439
G01 X2.10929 Y-0.37431
G01 X2.12098 Y-0.37670
G01 X2.13192 Y-0.38148
G01 X2.14223 Y-0.38897
G01 X2.14992 Y-0.39755
G01 X2.15604 Y-0.40827
G01 X2.15958 Y-0.41923
G01 X2.16083 Y-0.43110
G01 X2.15947 Y-0.44337
G01 X2.15589 Y-0.45432
G01 X2.14992 Y-0.46466
G01 X2.14223 Y-0.47323
G01 X2.13228 Y-0.48054
G01 X2.12176 Y-0.48525
G01 X2.11011 Y-0.48781
G01 X2.09818 Y-0.48790
G01 X2.08571 Y-0.48525
G01 X2.07520 Y-0.48054
G01 X2.06525 Y-0.47323
G01 X2.05756 Y-0.46466
G01 X2.05144 Y-0.45394
G01 X2.04790 Y-0.44297
G01 X2.04665 Y-0.43110
G04 P0 ( dwell for no time -- G64 should not smooth over this point )
G00 Z0.07874 ( retract )

G00 X1.99941 Y-0.57283 ( rapid move to begin. )
G01 F0.59055
G01 Z-0.01024
G04 P0 ( dwell for no time -- G64 should not smooth over this point )
G01 F1.18110
G01 X1.99941 Y-0.57283
G01 X2.00076 Y-0.56057
G01 X2.00434 Y-0.54961
G01 X2.01031 Y-0.53928
G01 X2.01801 Y-0.53070
G01 X2.02795 Y-0.52340
G01 X2.03847 Y-0.51869
G01 X2.05012 Y-0.51612
G01 X2.06205 Y-0.51604
G01 X2.07452 Y-0.51869
G01 X2.08504 Y-0.52340
G01 X2.09498 Y-0.53070
G01 X2.10268 Y-0.53928
G01 X2.10880 Y-0.55000
G01 X2.11233 Y-0.56097
G01 X2.11358 Y-0.57283
G01 X2.11223 Y-0.58510
G01 X2.10865 Y-0.59605
G01 X2.10268 Y-0.60639
G01 X2.09498 Y-0.61497
G01 X2.08504 Y-0.62227
G01 X2.07452 Y-0.62698
G01 X2.06287 Y-0.62954
G01 X2.05094 Y-0.62963
G01 X2.03925 Y-0.62723
G01 X2.02832 Y-0.62246
G01 X2.01801 Y-0.61497
G01 X2.01031 Y-0.60639
G01 X2.00420 Y-0.59567
G01 X2.00066 Y-0.58470
G01 X1.99941 Y-0.57283
G04 P0 ( dwell for no time -- G64 should not smooth over this point )
G00 Z0.07874 ( retract )

G00 X2.04665 Y-0.90354 ( rapid move to begin. )
G01 F0.59055
G01 Z-0.01024
G04 P0 ( dwell for no time -- G64 should not smooth over this point )
G01 F1.18110
G01 X2.04665 Y-0.90354
G01 X2.04790 Y-0.91541
G01 X2.05144 Y-0.92638
G01 X2.05756 Y-0.93710
G01 X2.06525 Y-0.94568
G01 X2.07520 Y-0.95298
G01 X2.08571 Y-0.95769
G01 X2.09818 Y-0.96034
G01 X2.11011 Y-0.96025
G01 X2.12176 Y-0.95769
G01 X2.13228 Y-0.95298
G01 X2.14223 Y-0.94568
G01 X2.14992 Y-0.93710
G01 X2.15589 Y-0.92676
G01 X2.15947 Y-0.91581
G01 X2.16083 Y-0.90354
G01 X2.15958 Y-0.89167
G01 X2.15604 Y-0.88071
G01 X2.14992 Y-0.86999
G01 X2.14223 Y-0.86141
G01 X2.13192 Y-0.85392
G01 X2.12098 Y-0.84914
G01 X2.10929 Y-0.84675
G01 X2.09737 Y-0.84683
G01 X2.08571 Y-0.84940
G01 X2.07520 Y-0.85410
G01 X2.06525 Y-0.86141
G01 X2.05756 Y-0.86999
G01 X2.05159 Y-0.88032
G01 X2.04801 Y-0.89128
G01 X2.04665 Y-0.90354
G04 P0 ( dwell for no time -- G64 should not smooth over this point )
G00 Z0.07874 ( retract )

G00 X1.99943 Y-1.04569 ( rapid move to begin. )
G01 F0.59055
G01 Z-0.01024
G04 P0 ( dwell for no time -- G64 should not smooth over this point )
G01 F1.18110
G01 X1.99943 Y-1.04569
G01 X2.00066 Y-1.05714
G01 X2.00453 Y-1.06886
G01 X2.01031 Y-1.07883
G01 X2.01862 Y-1.08796
G01 X2.02795 Y-1.09471
G01 X2.03847 Y-1.09942
G01 X2.05012 Y-1.10198
G01 X2.06205 Y-1.10207
G01 X2.07374 Y-1.09967
G01 X2.08504 Y-1.09471
G01 X2.09437 Y-1.08796
G01 X2.10242 Y-1.07915
G01 X2.10880 Y-1.06811
G01 X2.11240 Y-1.05674
G01 X2.11356 Y-1.04486
G01 X2.11233 Y-1.03341
G01 X2.10846 Y-1.02169
G01 X2.10268 Y-1.01172
G01 X2.09437 Y-1.00259
G01 X2.08504 Y-0.99584
G01 X2.07452 Y-0.99113
G01 X2.06287 Y-0.98857
G01 X2.05094 Y-0.98848
G01 X2.03925 Y-0.99088
G01 X2.02795 Y-0.99584
G01 X2.01862 Y-1.00259
G01 X2.01057 Y-1.01140
G01 X2.00434 Y-1.02206
G01 X2.00076 Y-1.03301
G01 X1.99943 Y-1.04569
G04 P0 ( dwell for no time -- G64 should not smooth over this point )
G00 Z0.07874 ( retract )

G00 X2.04668 Y-1.37640 ( rapid move to begin. )
G01 F0.59055
G01 Z-0.01024
G04 P0 ( dwell for no time -- G64 should not smooth over this point )
G01 F1.18110
G01 X2.04668 Y-1.37640
G01 X2.04790 Y-1.38785
G01 X2.05144 Y-1.39882
G01 X2.05756 Y-1.40954
G01 X2.06525 Y-1.41812
G01 X2.07520 Y-1.42542
G01 X2.08571 Y-1.43013
G01 X2.09737 Y-1.43269
G01 X2.10929 Y-1.43278
G01 X2.12098 Y-1.43038
G01 X2.13228 Y-1.42542
G01 X2.14162 Y-1.41867
G01 X2.14966 Y-1.40986
G01 X2.15604 Y-1.39882
G01 X2.15964 Y-1.38745
G01 X2.16080 Y-1.37557
G01 X2.15958 Y-1.36411
G01 X2.15570 Y-1.35240
G01 X2.14992 Y-1.34243
G01 X2.14162 Y-1.33330
G01 X2.13228 Y-1.32655
G01 X2.12098 Y-1.32158
G01 X2.11011 Y-1.31927
G01 X2.09818 Y-1.31919
G01 X2.08650 Y-1.32158
G01 X2.07520 Y-1.32655
G01 X2.06586 Y-1.33330
G01 X2.05782 Y-1.34211
G01 X2.05159 Y-1.35276
G01 X2.04801 Y-1.36372
G01 X2.04668 Y-1.37640

G04 P0 ( dwell for no time -- G64 should not smooth over this point )
G00 Z0.394 ( retract )

M5 ( Spindle off. )
G04 P1.000000
M9 ( Coolant off. )
M2 ( Program end. )

