( pcb2gcode 2.0.0 )
( Software-independent Gcode )
( This file uses a mill head of 0.07874inch to drill the 3 hole sizes. )
( Hole sizes: [0.0394 inch] [0.0472 inch] [0.0669 inch] )

G94       (Inches per minute feed rate.)
G20       (Units == INCHES.)
G91.1     (Incremental arc distance mode.)
G90       (Absolute coordinates.)
S1000    (RPM spindle speed.)
G01 F1.96850 (Feedrate)
M3        (Spindle on clockwise.)
G04 P1.00000
G00 Z0.07874

G0 X0.24020 Y-0.91340
G1 Z-0.11811 F0.98425
G0 Z0.07874

G0 X0.24020 Y-1.01340
G1 Z-0.11811 F0.98425
G0 Z0.07874

G0 X0.24020 Y-1.11340
G1 Z-0.11811 F0.98425
G0 Z0.07874

G0 X0.24020 Y-1.21340
G1 Z-0.11811 F0.98425
G0 Z0.07874

G0 X0.24020 Y-1.31340
G1 Z-0.11811 F0.98425
G0 Z0.07874

G0 X0.95810 Y-0.19690
G1 Z-0.11811 F0.98425
G0 Z0.07874

G0 X0.95810 Y-0.33460
G1 Z-0.11811 F0.98425
G0 Z0.07874

G0 X0.95810 Y-0.66930
G1 Z-0.11811 F0.98425
G0 Z0.07874

G0 X0.95810 Y-0.80710
G1 Z-0.11811 F0.98425
G0 Z0.07874

G0 X0.95810 Y-1.14170
G1 Z-0.11811 F0.98425
G0 Z0.07874

G0 X0.95810 Y-1.27950
G1 Z-0.11811 F0.98425
G0 Z0.07874

G0 X2.25730 Y-1.14170
G1 Z-0.11811 F0.98425
G0 Z0.07874

G0 X2.25730 Y-0.66930
G1 Z-0.11811 F0.98425
G0 Z0.07874

G0 X2.25730 Y-0.19690
G1 Z-0.11811 F0.98425
G0 Z0.07874

G0 X1.15890 Y-0.10040
G1 Z-0.11811 F0.98425
G0 Z0.07874

G0 X1.11160 Y-0.43110
G1 Z-0.11811 F0.98425
G0 Z0.07874

G0 X1.15890 Y-0.57280
G1 Z-0.11811 F0.98425
G0 Z0.07874

G0 X1.11160 Y-0.90350
G1 Z-0.11811 F0.98425
G0 Z0.07874

G0 X1.15890 Y-1.04530
G1 Z-0.11811 F0.98425
G0 Z0.07874

G0 X1.11160 Y-1.37600
G1 Z-0.11811 F0.98425
G0 Z0.07874

G0 X2.10370 Y-1.37600
G1 Z-0.11811 F0.98425
G0 Z0.07874

G0 X2.05650 Y-1.04530
G1 Z-0.11811 F0.98425
G0 Z0.07874

G0 X2.10370 Y-0.90350
G1 Z-0.11811 F0.98425
G0 Z0.07874

G0 X2.05650 Y-0.57280
G1 Z-0.11811 F0.98425
G0 Z0.07874

G0 X2.10370 Y-0.43110
G1 Z-0.11811 F0.98425
G0 Z0.07874

G0 X2.05650 Y-0.10040
G1 Z-0.11811 F0.98425
G0 Z0.07874

G00 Z0.394 ( All done -- retract )

M5      (Spindle off.)
G04 P1.000000
M9      (Coolant off.)
M2      (Program end.)

