( pcb2gcode 2.0.0 )
( Software-independent Gcode )

G94 ( Inches per minute feed rate. )
G20 ( Units == INCHES. )

G90 ( Absolute coordinates. )
G00 S1000 ( RPM spindle speed. )
G64 P0.00040 ( set maximum deviation from commanded toolpath )
G01 F1.96850 ( Feedrate. )


G00 Z0.39370 (Retract to tool change height)
T0
M5      (Spindle stop.)
G04 P1.00000 (Wait for spindle to stop)
(MSG, Change tool bit to cutter diameter 0.07874in)
M6      (Tool change.)
M0      (Temporary machine stop.)
M3 ( Spindle on clockwise. )
G04 P1.00000 (Wait for spindle to get up to speed)
G04 P0 ( dwell for no time -- G64 should not smooth over this point )
G00 Z0.07874 ( retract )

G00 X-0.03937 Y-1.45669 ( rapid move to begin. )
G01 Z-0.10630 F0.98425 ( plunge. )
G04 P0 ( dwell for no time -- G64 should not smooth over this point )
G01 F1.96850
G01 X-0.03937 Y-0.77165
G00 Z0.07874
G01 X-0.03937 Y-0.68504
G01 Z-0.10630 F0.98425
G01 F1.96850
G01 X-0.03937 Y0.00000
G01 X-0.03861 Y0.00768
G01 X-0.03637 Y0.01507
G01 X-0.03274 Y0.02187
G01 X-0.02784 Y0.02784
G01 X-0.02187 Y0.03274
G01 X-0.01507 Y0.03637
G01 X-0.00768 Y0.03861
G01 X0.00000 Y0.03937
G01 X1.13779 Y0.03937
G00 Z0.07874
G01 X1.22441 Y0.03937
G01 Z-0.10630 F0.98425
G01 F1.96850
G01 X2.36220 Y0.03937
G01 X2.36989 Y0.03861
G01 X2.37727 Y0.03637
G01 X2.38408 Y0.03274
G01 X2.39004 Y0.02784
G01 X2.39494 Y0.02187
G01 X2.39858 Y0.01507
G01 X2.40082 Y0.00768
G01 X2.40157 Y0.00000
G01 X2.40157 Y-0.68504
G00 Z0.07874
G01 X2.40157 Y-0.77165
G01 Z-0.10630 F0.98425
G01 F1.96850
G01 X2.40157 Y-1.45669
G01 X2.40082 Y-1.46437
G01 X2.39858 Y-1.47176
G01 X2.39494 Y-1.47856
G01 X2.39004 Y-1.48453
G01 X2.38408 Y-1.48943
G01 X2.37727 Y-1.49307
G01 X2.36989 Y-1.49531
G01 X2.36220 Y-1.49606
G01 X1.22441 Y-1.49606
G00 Z0.07874
G01 X1.13779 Y-1.49606
G01 Z-0.10630 F0.98425
G01 F1.96850
G01 X0.00000 Y-1.49606
G01 X-0.00768 Y-1.49531
G01 X-0.01507 Y-1.49307
G01 X-0.02187 Y-1.48943
G01 X-0.02784 Y-1.48453
G01 X-0.03274 Y-1.47856
G01 X-0.03637 Y-1.47176
G01 X-0.03861 Y-1.46437
G01 X-0.03937 Y-1.45669

G04 P0 ( dwell for no time -- G64 should not smooth over this point )
G00 Z0.394 ( retract )

M5 ( Spindle off. )
G04 P1.000000
M9 ( Coolant off. )
M2 ( Program end. )

